doodle/src/images/pencil.svg

<?xml version="1.0" encoding="iso-8859-1"?>
<!-- Generator: Adobe Illustrator 19.0.0, SVG Export Plug-In . SVG Version: 6.00 Build 0)  -->
<svg version="1.1" id="Layer_1" xmlns="http://www.w3.org/2000/svg" xmlns:xlink="http://www.w3.org/1999/xlink" x="0px" y="0px"
	 viewBox="0 0 469.336 469.336" style="enable-background:new 0 0 469.336 469.336;" xml:space="preserve">
<g>
	<g>
		<path d="M456.836,76.168l-64-64.054c-16.125-16.139-44.177-16.17-60.365,0.031L45.763,301.682
			c-1.271,1.282-2.188,2.857-2.688,4.587L0.409,455.73c-1.063,3.722-0.021,7.736,2.719,10.478c2.031,2.033,4.75,3.128,7.542,3.128
			c0.979,0,1.969-0.136,2.927-0.407l149.333-42.703c1.729-0.5,3.302-1.418,4.583-2.69l289.323-286.983
			c8.063-8.069,12.5-18.787,12.5-30.192S464.899,84.237,456.836,76.168z M285.989,89.737l39.264,39.264L120.257,333.998
			l-14.712-29.434c-1.813-3.615-5.5-5.896-9.542-5.896H78.921L285.989,89.737z M26.201,443.137L40.095,394.5l34.742,34.742
			L26.201,443.137z M149.336,407.96l-51.035,14.579l-51.503-51.503l14.579-51.035h28.031l18.385,36.771
			c1.031,2.063,2.708,3.74,4.771,4.771l36.771,18.385V407.96z M170.67,390.417v-17.082c0-4.042-2.281-7.729-5.896-9.542
			l-29.434-14.712l204.996-204.996l39.264,39.264L170.67,390.417z M441.784,121.72l-47.033,46.613l-93.747-93.747l46.582-47.001
			c8.063-8.063,22.104-8.063,30.167,0l64,64c4.031,4.031,6.25,9.385,6.25,15.083S445.784,117.72,441.784,121.72z"/>
	</g>
</g>
<g>
</g>
<g>
</g>
<g>
</g>
<g>
</g>
<g>
</g>
<g>
</g>
<g>
</g>
<g>
</g>
<g>
</g>
<g>
</g>
<g>
</g>
<g>
</g>
<g>
</g>
<g>
</g>
<g>
</g>
</svg>

<?xml version="1.0" encoding="UTF-8" standalone="no"?>
<!DOCTYPE svg PUBLIC "-//W3C//DTD SVG 1.1//EN" "http://www.w3.org/Graphics/SVG/1.1/DTD/svg11.dtd">
<svg width="100%" height="100%" viewBox="0 0 470 470" version="1.1" xmlns="http://www.w3.org/2000/svg" xmlns:xlink="http://www.w3.org/1999/xlink" xml:space="preserve" xmlns:serif="http://www.serif.com/" style="fill-rule:evenodd;clip-rule:evenodd;stroke-linejoin:round;stroke-miterlimit:2;">
    <g>
        <g>
            <path d="M456.836,76.168L392.836,12.114C376.711,-4.025 348.659,-4.056 332.471,12.145L45.763,301.682C44.492,302.964 43.575,304.539 43.075,306.269L0.409,455.73C-0.654,459.452 0.388,463.466 3.128,466.208C5.159,468.241 7.878,469.336 10.67,469.336C11.649,469.336 12.639,469.2 13.597,468.929L162.93,426.226C164.659,425.726 166.232,424.808 167.513,423.536L456.836,136.553C464.899,128.484 469.336,117.766 469.336,106.361C469.336,94.956 464.899,84.237 456.836,76.168ZM285.989,89.737L325.253,129.001L120.257,333.998L105.545,304.564C103.732,300.949 100.045,298.668 96.003,298.668L78.921,298.668L285.989,89.737ZM26.201,443.137L40.095,394.5L74.837,429.242L26.201,443.137ZM149.336,407.96L98.301,422.539L46.798,371.036L61.377,320.001L89.408,320.001L107.793,356.772C108.824,358.835 110.501,360.512 112.564,361.543L149.335,379.928L149.335,407.96L149.336,407.96ZM170.67,390.417L170.67,373.335C170.67,369.293 168.389,365.606 164.774,363.793L135.34,349.081L340.336,144.085L379.6,183.349L170.67,390.417ZM441.784,121.72L394.751,168.333L301.004,74.586L347.586,27.585C355.649,19.522 369.69,19.522 377.753,27.585L441.753,91.585C445.784,95.616 448.003,100.97 448.003,106.668C448.003,112.366 445.784,117.72 441.784,121.72Z" style="fill:white;fill-rule:nonzero;"/>
        </g>
    </g>
</svg>
